src/assets/footer-right-img-2.svg

<svg width="500" height="500" viewBox="0 0 500 500" fill="none" xmlns="http://www.w3.org/2000/svg">
<g clip-path="url(#clip0)">
<path d="M10.2739 500H179.794C260.178 500 325.342 434.836 325.342 354.452H155.822C75.438 354.452 10.2739 419.616 10.2739 500Z" fill="#ffffff0d"/>
<path d="M10.2739 154.11V368.151C90.6578 368.151 155.822 302.987 155.822 222.603V8.56165C75.438 8.56165 10.2739 73.7257 10.2739 154.11Z" fill="#ffffff0d"/>
<path d="M489.726 0H320.206C239.822 0 174.658 65.164 174.658 145.548H344.178C424.562 145.548 489.726 80.3839 489.726 0Z" fill="#ffffff0d"/>
<path d="M489.726 345.89V131.849C409.342 131.849 344.178 197.013 344.178 277.397V491.438C424.562 491.438 489.726 426.274 489.726 345.89Z" fill="#ffffff0d"/>
</g>
<defs>
<clipPath id="clip0">
<rect width="500" height="500" fill="#ffffff0d"/>
</clipPath>
</defs>
</svg>

<svg xmlns="http://www.w3.org/2000/svg" width="500" height="500" fill="none"><g fill="#ffffff0d" clip-path="url(#a)"><path d="M10.274 500h169.52c80.384 0 145.548-65.164 145.548-145.548h-169.52c-80.384 0-145.548 65.164-145.548 145.548ZM10.274 154.11v214.041c80.384 0 145.548-65.164 145.548-145.548V8.562c-80.384 0-145.548 65.164-145.548 145.548ZM489.726 0h-169.52c-80.384 0-145.548 65.164-145.548 145.548h169.52c80.384 0 145.548-65.164 145.548-145.548ZM489.726 345.89V131.849c-80.384 0-145.548 65.164-145.548 145.548v214.041c80.384 0 145.548-65.164 145.548-145.548Z"/></g><defs><clipPath id="a"><path fill="#ffffff0d" d="M0 0h500v500H0z"/></clipPath></defs></svg>
